Icons/Colored/CircleQuestionmark.svg

<svg xmlns="http://www.w3.org/2000/svg" xml:space="preserve" fill-rule="evenodd" stroke-linejoin="round" stroke-miterlimit="2" clip-rule="evenodd" viewBox="0 0 64 64">
  <g id="blue">
    <path fill="#73a7c7" d="M32 6c14.35 0 26 11.65 26 26S46.35 58 32 58 6 46.35 6 32 17.65 6 32 6Zm0 6c-11.038 0-20 8.962-20 20s8.962 20 20 20 20-8.962 20-20-8.962-20-20-20Z"/>
    <path fill="#4bc3f1" fill-rule="nonzero" d="M30.318 36.685a1.034 1.034 0 0 1-1.027-1.187 7.59 7.59 0 0 1 1.439-3.372c.42-.54.974-1.171 1.662-1.892.45-.454.878-.931 1.28-1.428.31-.395.569-.826.774-1.284a3.688 3.688 0 0 0 .316-1.528v-.016a2.402 2.402 0 0 0-.64-1.782 2.457 2.457 0 0 0-1.8-.634 2.3 2.3 0 0 0-1.786.7 2.88 2.88 0 0 0-.658 1.968v.002c-.009.014-5.384.014-5.432.014v-.016a7.89 7.89 0 0 1 1.05-3.8 6.17 6.17 0 0 1 2.684-2.4 9.454 9.454 0 0 1 4.116-.828 11.015 11.015 0 0 1 4.26.744 5.796 5.796 0 0 1 2.702 2.14c.639 1.016.961 2.2.926 3.4v.016a6.382 6.382 0 0 1-.41 2.348 7.5 7.5 0 0 1-1.012 1.832 21.889 21.889 0 0 1-1.6 1.816A26.448 26.448 0 0 0 35.7 33.17a6.579 6.579 0 0 0-.888 1.562 5.104 5.104 0 0 0-.297 1.075 1.027 1.027 0 0 1-1.014.867c-.897.009-2.241.01-3.183.011Zm-1.078 3.723c0-.572.464-1.036 1.036-1.036h3.162c.572 0 1.036.464 1.036 1.036v2.556c0 .572-.464 1.036-1.036 1.036h-3.162a1.036 1.036 0 0 1-1.036-1.036v-2.556Z"/>
  </g>
</svg>

<?xml version="1.0" encoding="UTF-8" standalone="no"?>
<!DOCTYPE svg PUBLIC "-//W3C//DTD SVG 1.1//EN" "http://www.w3.org/Graphics/SVG/1.1/DTD/svg11.dtd">
<svg width="100%" height="100%" viewBox="0 0 64 64" version="1.1" xmlns="http://www.w3.org/2000/svg" xmlns:xlink="http://www.w3.org/1999/xlink" xml:space="preserve" xmlns:serif="http://www.serif.com/" style="fill-rule:evenodd;clip-rule:evenodd;">
    <g id="Advisor">
        <g id="Info">
            <circle cx="32" cy="32" r="23" style="fill:none;stroke:#73a7c7;stroke-width:6px;"/>
        </g>
        <path d="M30.318,36.685C30.016,36.686 29.729,36.555 29.532,36.327C29.335,36.098 29.247,35.796 29.291,35.498C29.371,35.018 29.492,34.544 29.66,34.086C29.918,33.383 30.279,32.723 30.73,32.126C31.15,31.586 31.704,30.955 32.392,30.234C32.842,29.78 33.27,29.303 33.672,28.806C33.982,28.411 34.241,27.98 34.446,27.522C34.659,27.041 34.767,26.52 34.762,25.994L34.762,25.978C34.802,25.322 34.57,24.677 34.122,24.196C33.632,23.751 32.983,23.522 32.322,23.562C31.653,23.524 31,23.78 30.536,24.262C30.08,24.813 29.845,25.515 29.878,26.23L29.878,26.232C29.878,26.232 29.878,26.232 29.878,26.232C29.869,26.246 24.494,26.246 24.446,26.246C24.446,26.246 24.446,26.246 24.446,26.245C24.446,26.245 24.446,26.244 24.446,26.244C24.446,26.24 24.446,26.23 24.446,26.23C24.469,24.895 24.83,23.587 25.496,22.43C26.132,21.381 27.067,20.545 28.18,20.03C29.473,19.449 30.879,19.166 32.296,19.202C33.751,19.166 35.199,19.419 36.556,19.946C37.653,20.369 38.595,21.115 39.258,22.086C39.897,23.102 40.219,24.286 40.184,25.486L40.184,25.502C40.196,26.303 40.057,27.1 39.774,27.85C39.524,28.505 39.183,29.122 38.762,29.682C38.263,30.316 37.728,30.923 37.162,31.498C36.538,32.165 36.051,32.722 35.7,33.17C35.334,33.648 35.035,34.173 34.812,34.732C34.674,35.079 34.574,35.44 34.515,35.807C34.436,36.306 34.006,36.674 33.501,36.674C32.604,36.683 31.26,36.684 30.318,36.685ZM29.24,40.408C29.24,39.836 29.704,39.372 30.276,39.372C31.192,39.372 32.522,39.372 33.438,39.372C34.01,39.372 34.474,39.836 34.474,40.408C34.474,41.17 34.474,42.202 34.474,42.964C34.474,43.536 34.01,44 33.438,44C32.522,44 31.192,44 30.276,44C29.704,44 29.24,43.536 29.24,42.964C29.24,42.202 29.24,41.17 29.24,40.408Z" style="fill:#4bc3f1;fill-rule:nonzero;"/>
    </g>
</svg>
